X:1
T:Tebe poem
T:Tebe poem, Op. 27, #6
T:Pavel Grigorievitsj Tsjesnokov/Павел Григорьевич Чесноков
C:Pavel Grigorievitsj Tsjesnokov (1877-1944)
%%score [ 1 2 ( 3 4 ) ( 5 6 ) ]
L:1/8
Q:1/2=30
M:5/2
K:D
V:1 treble nm="Soprano"
V:2 treble nm="Alto"
V:3 treble-8 nm="Tenor"
V:4 treble-8 
V:5 bass nm="Bass"
V:6 bass 
V:1
!p! D4 D4 C4 D8 | B,4 D4 D4 D4 C4 D8 | B,4 D4 D4 D4 D4 E8- E8 F8 (F4 E4) F8- F4 z4 | %3
w: Te- be po- em,|Te- be bla- go- slo- vim,|Te- be bla- go- da- rim, _ Gos- po- * di, _|
 (F2 G2 A4) (G6 A2 G2 FE) F2 G2 (A4 D4) | %4
w: I _ _ mo- * * * * lim Ti sia, _|
 (E2 DE) F2 E2 (D3 E D2) C2 D4 E4 (F3 E F2 G2) A4 (A2 B2 AG F2 | G4) (GF) E2 F8 | %6
w: i _ _ mo- lim Ti _ _ sia, Bo- zhe nash, _ _ _ i mo- * * * *|* lim _ Ti sia,|
 (FG) A2 G2 F2 (E3 F E2 DC D4 E2) E2 F4 | F4 (E2 D2) E2 F2 (G3 F G2 FE F4) | %8
w: mo- * lim Ti sia, Bo- * * * * * * zhe nash,|i mo- * lim Ti sia, _ _ _ _ _|
 E2 F2 E2 D2 (C2 D2 G2 F2 E4) E4 D4- D2 z2 |] %9
w: mo- lim Ti sia Bo- * * * * zhe nash. _|
V:2
!p! D4 D4 C4 D8 | B,4 D4 D4 D4 C4 D8 | B,4 D4 D4 D4 D4 E8- E8 F8 (F4 E4) F8- F4 z4 | %3
w: Te- be po- em,|Te- be bla- go- slo- vim,|Te- be bla- go- da- rim, _ Gos- po- * di, _|
 (E4 ^D4) =D8 C4 C2 C2 =C8 | B,4 C2 C2 B,4- B,2 B,2 B,4 C4 (D2 C2 D2 E2) (E2 ^D2) (E6 ^D2 | %5
w: I _ mo- * lim Ti sia,|i mo- lim Ti _ sia, Bo- zhe nash, _ _ _ i _ mo- *|
 E2 ^D2) E2 C2 =D8 | E2 E2 ^D2 D2 (=D6 B,2- B,4 C2) C2 D4 | D4 (E2 D2) E2 D2 D8- D4 | %8
w: * * lim Ti sia,|mo- lim Ti sia, Bo- * * * zhe nash,|i mo- * lim Ti sia, _|
 B,4 B,4 (B,2 A,2) (B,2 D2) (D2 B,2) C4 D4- D2 z2 |] %9
w: mo- lim Ti _ sia, _ Bo- * zhe nash. _|
V:3
!p! B4 B4 B4 B8 | B4 B4 B4 B4 B4 B8 | B4 B4 B4 B4 d4 (d8 c8) d8 B8 ^A8- A4 z4 | %3
w: |||
 A8 (_B8 A4) A2 G2 F8 | D4 G2 G2 (F4 G2) G2 G4 G4 (F2 A2 d2 c2) =c4 (c8 | B4) B2 _B2 A8 | %6
w: I mo- * lim Ti sia,|i mo- lim Ti _ sia, Bo- zhe nash, _ _ _ i mo-|* lim Ti sia,|
 A2 A2 A2 A2 (^G8 =G6) G2 F4 | A4 =c4 c2 c2 (B4 _B4 A4) | G4 G4 (G2 F2) (E2 F2) G4 G4 F4- F2 z2 |] %9
w: mo- lim Ti sia, Bo- * zhe nash,|i mo- lim Ti sia, _ _|mo- lim Ti _ sia, _ Bo- zhe nash. _|
V:4
 F4 G4 G4 F8 | F4 F4 F4 G4 G4 F8 | F4 F4 F4 G4 G4 G8- G8 F8 B8 ^A8- A4 x4 | x32 | x44 | x16 | x28 | %7
w: Te- be po- em,|Te- be bla- go- slo- vim,|Te- be bla- go- da- rim, _ Gos- po- di, _|||||
 x24 | x32 |] %9
w: ||
V:5
!p! B,,4 E,4 E,4 B,,8 | B,,4 B,,4 B,,4 E,4 E,4 B,,8 | %2
w: ||
 B,,4 B,,4 B,,4 E,4 E,4 A,,8- A,,8 (A,,4 D,4) (D,4 C,4) C,8- C,4 z4 | %3
w: |
 B,,8 (E,,4 E,4 A,,4) A,,2 A,,2 D,,8 | %4
w: |
 G,,4 A,,2 ^A,,2 (B,,4 E,2) E,2 =A,,4 A,,4 (D,,8- D,,8- D,,4- | D,,8- D,,4 D,2 C,2) | %6
w: i mo- lim Ti _ sia, Bo- zhe nash, _ _|_ _ _ _|
 =C,2 C,2 B,,2 B,,2 (E,,8 A,,6) A,,2 D,,4- | D,,4- D,,8- D,,8- D,,4 | %8
w: mo- lim Ti sia, Bo- * zhe nash,|_ _ _ _|
 G,,4 G,,4 A,,4 A,,4 A,,4 A,,4 A,,4- A,,2 z2 |] %9
w: mo- lim Ti sia, Bo- zhe nash. _|
V:6
 B,,,4 E,,4 E,,4 B,,,8 | B,,,4 B,,,4 B,,,4 E,,4 E,,4 B,,,8 | %2
w: Te- be po- em,|Te- be bla- go- slo- vim,|
 B,,,4 B,,,4 B,,,4 E,,4 E,,4 A,,,8- A,,,8 D,,8 G,,8 F,,8- F,,4 x4 | %3
w: Te- be bla- go- da- rim, _ Gos- po- di, _|
 (B,,4 B,,,4) (E,,4 E,4 A,,4) A,,2 A,,2 D,,8 | x44 | x16 | x28 | x24 | %8
w: I _ mo- * * lim Ti sia,|||||
 G,,4 G,,4 A,,4 A,,4 A,,4 A,,4 D,,4- D,,2 x2 |] %9
w: |

